X: 0
T: The Morayshire Farmers Club
C: William Marshall
R: reel
M: 4/4
L: 1/8
K: G
E| "G"DGBG EAFD|G2 Bd gdBG | "C"ceBd EAFD|ECFD "G"G2 G:|
f|"G"g2 dg Bgdf |g2 fg "D"aAce| "G"g2 dg Bgdg| "C"EAFD "G"G2 Gf|
"G"g2 dg Bgdf |g2 fg "D"aAce|"C"gbaf gdBG|EAFD "G"G2 G||